public/assets/img/svg/embed/edit-meta.svg

<?xml version="1.0" encoding="UTF-8" standalone="no"?>
<svg width="48px" height="38px" viewBox="0 0 48 38" version="1.1" xmlns="http://www.w3.org/2000/svg" xmlns:xlink="http://www.w3.org/1999/xlink" xmlns:sketch="http://www.bohemiancoding.com/sketch/ns">
    <!-- Generator: Sketch 3.2.2 (9983) - http://www.bohemiancoding.com/sketch -->
    <title>Meta-icon</title>
    <desc>Created with Sketch.</desc>
    <defs></defs>
    <g id="Page-1" stroke="none" stroke-width="1" fill="none" fill-rule="evenodd" sketch:type="MSPage">
        <g id="2.0-Toolbox" sketch:type="MSArtboardGroup" transform="translate(-843.000000, -291.000000)" fill="#000000">
            <g id="Edit-meta-+-Group" sketch:type="MSLayerGroup" transform="translate(824.000000, 291.000000)">
                <g id="Meta-icon" transform="translate(19.000000, 0.000000)" sketch:type="MSShapeGroup">
                    <path d="M41.7373613,10.5 L42.4873613,10.5 L42.4873613,9 L41.7373613,9 L20.948839,9 L20.198839,9 L20.198839,10.5 L20.948839,10.5 L41.7373613,10.5 Z" id="Line"></path>
                    <path d="M41.7373613,19.5 L42.4873613,19.5 L42.4873613,18 L41.7373613,18 L20.948839,18 L20.198839,18 L20.198839,19.5 L20.948839,19.5 L41.7373613,19.5 Z" id="Line-2"></path>
                    <path d="M41.5570946,28.5 L42.3070946,28.5 L42.3070946,27 L41.5570946,27 L6.5,27 L5.75,27 L5.75,28.5 L6.5,28.5 L41.5570946,28.5 Z" id="Line-3"></path>
                    <path d="M44.122494,2 C45.1583899,2 46,2.83258717 46,3.8398883 L46,34.1601117 C46,35.1772446 45.1683453,36 44.122494,36 L3.87750602,36 C2.84161015,36 2,35.1674128 2,34.1601117 L2,3.8398883 C2,2.82275541 2.83165469,2 3.87750602,2 L44.122494,2 Z M0,3.8398883 L0,34.1601117 C0,36.2768368 1.74183759,38 3.87750602,38 L44.122494,38 C46.268127,38 48,36.2866592 48,34.1601117 L48,3.8398883 C48,1.72316321 46.2581624,0 44.122494,0 L3.87750602,0 C1.73187302,0 0,1.71334078 0,3.8398883 Z" id="Rectangle-250"></path>
                    <path d="M16,10 L15,9 L15,19 L16,18 L7,18 L8,19 L8,9 L7,10 L16,10 Z M6,8 L6,9 L6,19 L6,20 L7,20 L16,20 L17,20 L17,19 L17,9 L17,8 L16,8 L7,8 L6,8 Z" id="Rectangle-251"></path>
                </g>
            </g>
        </g>
    </g>
</svg>

<svg width="48" height="38" viewBox="0 0 48 38" xmlns="http://www.w3.org/2000/svg"><path d="M41.737 10.5h.75v-1.5h-22.289v1.5h21.539z"/><path d="M41.737 19.5h.75v-1.5h-22.289v1.5h21.539z"/><path d="M41.557 28.5h.75v-1.5h-36.557v1.5h35.807z"/><path d="M44.122 2c1.036 0 1.878.833 1.878 1.84v30.32c0 1.017-.832 1.84-1.878 1.84h-40.245c-1.036 0-1.878-.833-1.878-1.84v-30.32c0-1.017.832-1.84 1.878-1.84h40.245zm-44.122 1.84v30.32c0 2.117 1.742 3.84 3.878 3.84h40.245c2.146 0 3.878-1.713 3.878-3.84v-30.32c0-2.117-1.742-3.84-3.878-3.84h-40.245c-2.146 0-3.878 1.713-3.878 3.84z"/><path d="M16 10l-1-1v10l1-1h-9l1 1v-10l-1 1h9zm-10-2v12h11v-12h-11z"/></svg>
